static/app-icons/dark-theme/WatsonLanguageTranslator.svg

<svg xmlns="http://www.w3.org/2000/svg" xmlns:xlink="http://www.w3.org/1999/xlink" viewBox="0 0 32 32"><defs><linearGradient id="linear-gradient" x1="-848" y1="3433.5" x2="-840" y2="3433.5" gradientTransform="translate(862 -3428)" gradientUnits="userSpaceOnUse"><stop offset="0" stop-opacity="0"/><stop offset=".8"/></linearGradient><linearGradient id="linear-gradient-2" x1="11" y1="26.5" x2="19" y2="26.5" xlink:href="#linear-gradient"/><linearGradient id="linear-gradient-3" y1="32" x2="32" gradientUnits="userSpaceOnUse"><stop offset=".1" stop-color="#be95ff"/><stop offset=".9" stop-color="#4589ff"/></linearGradient><style>.cls-1{fill:#fff}.cls-6{fill:#f4f4f4}</style><mask id="mask" x="0" y="0" width="32" height="32" maskUnits="userSpaceOnUse"><path class="cls-1" d="M28 16h-2v-5a5.006 5.006 0 00-5-5h-6V4h6a7.009 7.009 0 017 7z"/><path transform="rotate(180 18 5.5)" fill="url(#linear-gradient)" d="M14 3h8v5h-8z"/><path class="cls-1" d="M18 28h-5a7.009 7.009 0 01-7-7v-4h2v4a5.006 5.006 0 005 5h5z"/><path fill="url(#linear-gradient-2)" d="M11 24h8v5h-8z"/></mask></defs><g id="Layer_2" data-name="Layer 2"><g id="Dark_theme_icons" data-name="Dark theme icons"><g mask="url(#mask)"><path fill="url(#linear-gradient-3)" d="M0 0h32v32H0z"/></g><path class="cls-6" d="M14 5V3H9V1H7v2H2v2h8.215A8.6 8.6 0 018 8.977 9.291 9.291 0 016.552 7H4.333a10.87 10.87 0 002.146 3.3A14.694 14.694 0 013 12.127L3.7 14a16.459 16.459 0 004.291-2.336A16.5 16.5 0 0012.3 14l.7-1.873A14.677 14.677 0 019.523 10.3 10.316 10.316 0 0012.252 5zM28 30h2.167l-4.584-11h-2.166l-4.584 11H21l.833-2h5.334zm-5.333-4l1.833-4.4 1.833 4.4z"/></g></g></svg>

<svg xmlns="http://www.w3.org/2000/svg" xmlns:xlink="http://www.w3.org/1999/xlink" viewBox="0 0 32 32"><defs><style>.cls-1{fill:#fff;}.cls-2{fill:url(#linear-gradient);}.cls-3{fill:url(#linear-gradient-2);}.cls-4{mask:url(#mask);}.cls-5{fill:url(#linear-gradient-3);}.cls-6{fill:#f4f4f4;}</style><linearGradient id="linear-gradient" x1="-848" y1="3433.5" x2="-840" y2="3433.5" gradientTransform="translate(862 -3428)" gradientUnits="userSpaceOnUse"><stop offset="0" stop-opacity="0"/><stop offset="0.8"/></linearGradient><linearGradient id="linear-gradient-2" x1="11" y1="26.5" x2="19" y2="26.5" gradientTransform="matrix(1, 0, 0, 1, 0, 0)" xlink:href="#linear-gradient"/><mask id="mask" x="0" y="0" width="32" height="32" maskUnits="userSpaceOnUse"><path class="cls-1" d="M28,16H26V11a5.006,5.006,0,0,0-5-5H15V4h6a7.009,7.009,0,0,1,7,7Z"/><rect class="cls-2" x="14" y="3" width="8" height="5" transform="translate(36 11) rotate(180)"/><path class="cls-1" d="M18,28H13a7.009,7.009,0,0,1-7-7V17H8v4a5.006,5.006,0,0,0,5,5h5Z"/><rect class="cls-3" x="11" y="24" width="8" height="5"/></mask><linearGradient id="linear-gradient-3" y1="32" x2="32" gradientUnits="userSpaceOnUse"><stop offset="0.1" stop-color="#be95ff"/><stop offset="0.9" stop-color="#4589ff"/></linearGradient></defs><g id="Layer_2" data-name="Layer 2"><g id="Dark_theme_icons" data-name="Dark theme icons"><g class="cls-4"><rect class="cls-5" width="32" height="32"/></g><path class="cls-6" d="M14,5V3H9V1H7V3H2V5h8.215A8.6,8.6,0,0,1,8,8.977,9.291,9.291,0,0,1,6.552,7H4.333a10.87,10.87,0,0,0,2.146,3.3A14.694,14.694,0,0,1,3,12.127L3.7,14a16.459,16.459,0,0,0,4.291-2.336A16.5,16.5,0,0,0,12.3,14l.7-1.873A14.677,14.677,0,0,1,9.523,10.3,10.316,10.316,0,0,0,12.252,5Z"/><path class="cls-6" d="M28,30h2.167L25.583,19H23.417L18.833,30H21l.833-2h5.334Zm-5.333-4L24.5,21.6,26.333,26Z"/></g></g></svg>
